!!!Xfilter:transpose -t P8
!!!OTL: 1422. Husarenliebe.
!!!ODT: 1880
!!!ARE: Europa, Mitteleuropa, Deutschland, Hessen, Nassau, Dill - Kreis
!!!SCT: E1422
!!!TXL: @@DE
!!!YEM: Copyright 1995, estate of Helmut Schaffrath.
**kern	**text
*ICvox	*
*M4/4	*
*met(c)	*
*k[]	*
*C:	*
!LO:TX:a:t=Lustig.	!
!LO:TX:a:t=Aus dem Dillkreis (Naſſauiſch). 1880.	!
{4c	Jn
=1	=1
4c	meines
4e	.
4g	Vaters
4cc	.
=2	=2
2g	Gar-
4e}	-ten
{4g	da
=3	=3
4g	ſtehn
4f	viel
4f	ſchöne
4a	.
=4	=4
4a	Blum,
4g	Blum,
4g}	Blum,
{4G	drei
=5	=5
4c	Jahr
4e	muß
4g	ich
4cc	noch
=6	=6
2a	war-
4ff}	-ten,
{4ff	drei
=7	=7
4gg	Jahr
4gg	ſind
4b	bald
4b	her-
=8	=8
2cc	-um.
4r}	.
{8g	Ei-
8g	-di-
=9	=9
4a	-rul-
4cc/	-la-
4a	-rul-
4cc	-la
=10	=10
4g	trul-
4g	-la-
4e}	-la,
{8g	ei-
8g	-di-
=11	=11
4g	-rul-
4f	-la-
4f	-la!
8a	ei-
8a	-di-
=12	=12
4a	-rul-
4g	-la-
4g}	-la!
{4G	Drei
=13	=13
4c	Jahr
4e	muß
4g	ich
4cc	noch
=14	=14
2a	war-
4ff}	-ten,
{4ff	drei
=15	=15
4gg	Jahr
4gg	ſind
4b	bald
4b	her-
=16	=16
2cc	-um.
4r}	.
==	==
!!!AGN: Staende -, Soldaten - Lied, Liebe
!!!ONB: ESAC (Essen Associative Code) Database: ERK3
!!!AMT: simple quadruple
!!!AIN: vox
!!!EED: Helmut Schaffrath
!!!EEV: 1.0
!!!GTL: Staendelieder (Berufslieder). 1. Soldaten- und Kriegslieder. Soldatenlieder seit dem 30jaehr. Kriege.
!!!URL-scan: https://rosdok.uni-rostock.de/mcrviewer/recordIdentifier/rosdok_ppn745177999/iview2/phys_0286.iview2?x=-128.77276441889308&y=1902.9935579863377&scale=0.5870222003877485&rotation=0&layout=singlePageLayout
!!!ENC: Anna Maria Matuszewska
!!!EEV: 2024/12/31
*-	*-
